X:120
T:Mood Indigo
C:Jethro Burns
N:Tabledited By Jim Nikora
L:1/8
Q:1/4=120
M:4/4
K:C
z8 | "C"(3[eGC][eGC][eGC] (3[eGC][eGC][eGC] "B"[^d2^F2B,2] "C"[e2G2C2] | "D9"(3[e^FC][eFC][eFC] (3[eFC][eFC][eFC] [e4F4C4] | 
(3"G7"[gBF][gBF][gBF] (3[gBF][gBF][gBF] (3"G+"[gB^D][gBD][gBD] (3[gBD][gBD][gBD] | 
(3"C"[gcE][gcE][gcE] (3[gcE][gcE][gcE] [g4c4E4] | "C"(3[eGC][eGC][eGC] (3[eGC][eGC][eGC] "B"[^d2^F2B,2] "C"[e2G2C2] | 
"D9"(3[e^FC][eFC][eFC] (3[eFC][eFC][eFC] [e4F4C4] | "Cdim"[^d4^F4C4] "D7"[=d2F2C2] [c2F2C2] | 
"G7"[B4F4B,4] [AFB,]_B [=B2F2B,2] | "C"[c4E4] [c2E2] "B"[B2^D2] | "Bb"[_B4D4] [gB][aB] [g2B2] | 
"F"[fAC][fAC] [fAC][fAC] "E"[e2^G2B,2] "F"[f2A2C2] | "Bb"[dF_B,][dFB,] [dFB,][dFB,] [d2F2B,2] "B"[^d2^F2=B,2] | 
"C"[eGC][eGC] [eGC][eGC] "B"[^d2^F2B,2] "C"[e2G2C2] | "D9"[e^FC][eFC] [eFC][eFC] [e4F4C4] | 
"G7"[gBF][gBF] [gBF][gBF] "G+"[gB^D][gBD] [gBD][gBD] | "C"[gcE][gcE] [gcE][gcE] [g4c4E4] | 
"A7"^C2 [AGC]_B [=B2G2C2] [A2G2C2] | "D7"[A^FC]e ^d[=dFC] z[dFC] [d2F2C2] | [eAFB,]d BA GA Bd | 
"C"[c2E2] "F"[F2A,2] "C"[c4E4] | "A7"^C2 [AGC]_B [=B2G2C2] [A2G2C2] | "D7"[A^FC]e ^d[=dFC] z[dFC] [d2F2C2] | 
"Eb"^d=d c_B ^GB c^d | "G7"[dFB,][dFB,] [d2F2B,2] [d4F4B,4] | "C"[cE]c [dE]A [c3/2E3/2][d3/2E3/2]A | 
[c3/2E3/2][d3/2E3/2]A [c4E4] | "F"[cFA,]c [dFA,]A [c3/2F3/2A,3/2][d3/2F3/2A,3/2]c | 
[^dFA,]c [=d2F2A,2] [c4F4A,4] | "A7"^C2 [AGC]_B [=B2G2C2] [A2G2C2] | "D7"[A^FC]e ^d[=dFC] z[dFC] [d2F2C2] | 
[eAFB,]d BA GA Bd | "C"[c2E2] "F"[F2A,2] "C"[c4E4] | "C"(3eGC (3eGC "B"(3^d^FB, "C"(3eGC | 
"D9"(3e^FC (3eFC e4 | (3"G7"gBF (3gBF (3"G+"gB^D (3gBD | (3"C"gcE (3gcE g4 | (3"C"eGC (3eGC (3"B"^d^FB, (3"C"eGC | 
(3"D9"e^FC (3eFC e4 | (3"Cdim"^d^FC (3dFC (3"D7"=dFC (3cFC | (3"G7"BFB, (3BFB, [AFB,]_B [=B2F2B,2] | 
(3"C"cEG, (3cEG, (3"B"B^DG, (3BDG, | (3"Bb"_BDG, (3BDG, [gB][aB] [g2B2] | (3"F"fAC (3fAC (3"E"e^GB, (3"F"fAC | 
(3"Bb"dF_B, (3dFB, (3dFB, (3"B"^d^F=B, | (3"C"eGC (3eGC (3"B"^d^FB, (3"C"eGC | 
(3"D9"e^FC (3eFC e4 | "G7"[g4B4F4] "G+"[g4B4^D4] | [c'8e8G8C8] | 


